aces_1.3/luts/shots/SC001_001/VFX_Final_LUT.cube
TITLE "RWG_Log3G10 to REC709_BT1886"
LUT_3D_SIZE 9
DOMAIN_MIN 0.000000 0.000000 0.000000
DOMAIN_MAX 1.000000 1.000000 1.000000
0.000000 0.000000 0.000000
0.072981 0.003505 0.003505
0.253323 0.014380 0.021064
0.607897 0.052265 0.073987
0.889068 0.141382 0.200521
1.000001 0.429944 0.508060
1.000001 0.661165 0.704587
1.000001 0.752382 0.784018
1.000001 0.764886 0.794974
0.003505 0.073808 0.003505
0.057450 0.066890 0.003505
0.277175 0.034545 0.019102
0.639258 0.063361 0.078347
0.905820 0.158720 0.220560
1.000001 0.460872 0.532944
1.000001 0.674084 0.715625
1.000001 0.757526 0.788459
1.000001 0.764939 0.794961
0.003505 0.283226 0.004288
0.003663 0.278164 0.004230
0.236264 0.260243 0.003761
0.649717 0.182245 0.061694
0.916670 0.208825 0.227989
1.000001 0.492274 0.550794
1.000001 0.685709 0.724116
1.000001 0.761868 0.791579
1.000001 0.765519 0.794824
0.003917 0.613715 0.014760
0.003990 0.610104 0.014425
0.006484 0.603437 0.013242
0.539844 0.577870 0.009316
0.899905 0.506871 0.159080
1.000001 0.567540 0.540372
1.000001 0.703756 0.723936
1.000001 0.769744 0.791560
1.000001 0.771414 0.793421
0.011589 0.846024 0.083044
0.011480 0.844051 0.081447
0.013308 0.841762 0.079494
0.094925 0.835549 0.073535
0.779797 0.813634 0.076206
0.996404 0.769836 0.447812
1.000001 0.781185 0.698577
1.000001 0.809225 0.780485
1.000001 0.809012 0.783721
0.085587 0.959234 0.403505
0.084053 0.958411 0.399042
0.084045 0.957546 0.394415
0.112914 0.956143 0.387910
0.575500 0.950905 0.374313
0.913835 0.937556 0.428063
1.000001 0.914580 0.645901
1.000001 0.906969 0.747379
1.000001 0.903287 0.755199
0.390413 1.000001 0.653365
0.386167 1.000001 0.651521
0.382997 1.000001 0.649647
0.400162 1.000001 0.647537
0.550910 1.000001 0.643632
0.833022 0.995452 0.640442
0.972056 0.988266 0.673518
1.000001 0.978872 0.745353
1.000001 0.975847 0.754080
0.606621 1.000001 0.758802
0.605247 1.000001 0.758022
0.604049 1.000001 0.757231
0.606638 1.000001 0.756376
0.644892 1.000001 0.754968
0.797598 1.000001 0.751903
0.941814 1.000001 0.757001
0.994928 1.000001 0.777434
1.000001 1.000001 0.792279
0.681597 1.000001 0.801564
0.681619 1.000001 0.801564
0.681713 1.000001 0.801563
0.683343 1.000001 0.801537
0.700685 1.000001 0.801256
0.792041 1.000001 0.799580
0.922676 1.000001 0.800113
0.983452 1.000001 0.810391
1.000001 1.000001 0.821971
0.003505 0.003505 0.060238
0.071456 0.003505 0.060735
0.255574 0.012162 0.046740
0.609650 0.051246 0.083261
0.889705 0.141275 0.205624
1.000001 0.430808 0.509706
1.000001 0.661578 0.705102
1.000001 0.752749 0.784401
1.000001 0.764877 0.795018
0.003505 0.059743 0.056415
0.053727 0.053728 0.053731
0.278279 0.029522 0.041271
0.639126 0.061909 0.087122
0.905802 0.158075 0.225023
1.000001 0.460690 0.533609
1.000001 0.674053 0.715747
1.000001 0.757514 0.788509
1.000001 0.764927 0.795008
0.003505 0.277021 0.005532
0.003505 0.277636 0.005379
0.236895 0.259248 0.004377
0.650131 0.180324 0.067958
0.916649 0.208181 0.231914
1.000001 0.492132 0.551346
1.000001 0.685683 0.724223
1.000001 0.761855 0.791626
1.000001 0.765506 0.794869
0.003917 0.609923 0.015816
0.003990 0.611402 0.015844
0.006442 0.604714 0.014691
0.540805 0.578508 0.010441
0.899738 0.507827 0.161136
1.000001 0.567700 0.540831
1.000001 0.704105 0.724351
1.000001 0.769734 0.791605
1.000001 0.771404 0.793464
0.011275 0.844029 0.082369
0.011559 0.844648 0.082829
0.013383 0.842362 0.080925
0.095739 0.836144 0.074953
0.781222 0.814941 0.078377
0.996296 0.770616 0.448099
1.000001 0.781279 0.699087
1.000001 0.809457 0.780675
1.000001 0.809004 0.783764
0.083844 0.958408 0.399486
0.085191 0.958951 0.402436
0.085160 0.958093 0.397882
0.113606 0.956417 0.389947
0.576944 0.951179 0.376459
0.914182 0.937860 0.429930
1.000001 0.914985 0.645988
1.000001 0.907345 0.747319
1.000001 0.903663 0.755131
0.385967 1.000001 0.651582
0.389122 1.000001 0.652810
0.385976 1.000001 0.650952
0.402840 1.000001 0.648861
0.552264 1.000001 0.644986
0.833677 0.995548 0.641180
0.972194 0.988381 0.674184
1.000001 0.979023 0.745674
1.000001 0.976018 0.754216
0.605203 1.000001 0.758041
0.606192 1.000001 0.758561
0.605002 1.000001 0.757776
0.607572 1.000001 0.756928
0.645725 1.000001 0.755528
0.798287 1.000001 0.752197
0.942068 1.000001 0.757324
0.995038 1.000001 0.777971
1.000001 1.000001 0.792436
0.681597 1.000001 0.801574
0.681618 1.000001 0.801573
0.681711 1.000001 0.801573
0.683334 1.000001 0.801548
0.700684 1.000001 0.801267
0.792118 1.000001 0.799776
0.922984 1.000001 0.800320
0.983539 1.000001 0.810592
1.000001 1.000001 0.822150
0.012013 0.004426 0.217385
0.044958 0.004360 0.223685
0.252729 0.004250 0.225582
0.606477 0.040319 0.202048
0.888185 0.134333 0.253558
1.000001 0.425414 0.514771
1.000001 0.660357 0.705660
1.000001 0.752244 0.784588
1.000001 0.764769 0.795468
0.008327 0.008331 0.243925
0.029979 0.007534 0.245078
0.274568 0.005943 0.246304
0.635980 0.048993 0.213562
0.903791 0.149942 0.275173
1.000001 0.455759 0.538132
1.000001 0.672921 0.716323
1.000001 0.757013 0.788709
1.000001 0.764813 0.795484
0.003505 0.242530 0.234585
0.003505 0.242716 0.235303
0.229133 0.229138 0.229156
0.644739 0.148620 0.192386
0.913558 0.196814 0.281558
1.000001 0.485918 0.554079
1.000001 0.683877 0.724189
1.000001 0.761355 0.791846
1.000001 0.765383 0.795380
0.003825 0.600860 0.043734
0.003850 0.602436 0.042904
0.005933 0.601536 0.040234
0.540618 0.574062 0.038036
0.896627 0.504959 0.190851
1.000001 0.564296 0.542834
1.000001 0.702598 0.724223
1.000001 0.769305 0.791778
1.000001 0.771293 0.793947
0.010786 0.841470 0.091190
0.011076 0.842113 0.091350
0.013367 0.843116 0.091630
0.094929 0.836118 0.086726
0.781690 0.814796 0.092755
0.995522 0.770233 0.452152
1.000001 0.781157 0.698542
1.000001 0.809319 0.780762
1.000001 0.809056 0.784191
0.082015 0.957515 0.399004
0.083351 0.958067 0.401788
0.085607 0.958309 0.402989
0.114699 0.956907 0.397521
0.577808 0.951680 0.385268
0.914499 0.938065 0.436172
1.000001 0.915394 0.645774
1.000001 0.907677 0.747262
1.000001 0.903623 0.755566
0.381374 1.000001 0.650164
0.384597 1.000001 0.651383
0.387388 1.000001 0.651968
0.404097 1.000001 0.649975
0.553121 1.000001 0.646218
0.834175 0.995748 0.643169
0.972326 0.988478 0.675416
1.000001 0.979190 0.745832
1.000001 0.976003 0.754501
0.603756 1.000001 0.757363
0.604757 1.000001 0.757884
0.605465 1.000001 0.758138
0.608024 1.000001 0.757312
0.646050 1.000001 0.755942
0.798989 1.000001 0.752917
0.942319 1.000001 0.757812
0.995091 1.000001 0.778408
1.000001 1.000001 0.792723
0.681592 1.000001 0.801623
0.681614 1.000001 0.801620
0.681706 1.000001 0.801617
0.683328 1.000001 0.801599
0.700750 1.000001 0.801327
0.792609 1.000001 0.799842
0.923320 1.000001 0.800422
0.983656 1.000001 0.810723
1.000001 1.000001 0.822405
0.038063 0.008127 0.520924
0.048380 0.008085 0.529049
0.214437 0.007076 0.535550
0.580678 0.007368 0.531688
0.876916 0.091602 0.499882
1.000001 0.386627 0.566983
1.000001 0.650677 0.712873
1.000001 0.748947 0.787685
1.000001 0.763762 0.799606
0.036584 0.010264 0.555501
0.045963 0.010015 0.557173
0.223092 0.008465 0.563410
0.608001 0.008788 0.558726
0.892996 0.102122 0.520024
1.000001 0.418975 0.586692
1.000001 0.663418 0.723436
1.000001 0.753708 0.791964
1.000001 0.763729 0.799937
0.014166 0.061651 0.576711
0.017903 0.059286 0.578549
0.156862 0.048968 0.577830
0.616365 0.035123 0.572515
0.901813 0.134148 0.532645
1.000001 0.451650 0.601138
1.000001 0.674525 0.731443
1.000001 0.758228 0.795489
1.000001 0.764223 0.800170
0.003505 0.552575 0.539208
0.003505 0.553958 0.540709
0.003850 0.551541 0.539814
0.528452 0.528463 0.528497
0.880870 0.463655 0.497696
1.000001 0.540500 0.594293
1.000001 0.693692 0.731848
1.000001 0.766087 0.795693
1.000001 0.770057 0.799205
0.008324 0.831860 0.349297
0.008548 0.832570 0.347975
0.010474 0.832939 0.345789
0.084650 0.830123 0.334254
0.779806 0.806841 0.366193
0.990890 0.766035 0.515334
1.000001 0.777552 0.705659
1.000001 0.807248 0.784334
1.000001 0.808078 0.789428
0.078377 0.955666 0.450756
0.079168 0.955967 0.450858
0.082115 0.956513 0.452102
0.112916 0.956261 0.450585
0.575328 0.950857 0.448100
0.914454 0.937098 0.489812
1.000001 0.915308 0.653916
1.000001 0.907132 0.750546
1.000001 0.903518 0.760571
0.375491 1.000001 0.655540
0.378819 1.000001 0.656580
0.381829 1.000001 0.656993
0.404370 1.000001 0.657170
0.553321 1.000001 0.654714
0.834605 0.995617 0.652780
0.972523 0.988462 0.684394
1.000001 0.979284 0.748247
1.000001 0.975996 0.758124
0.602074 1.000001 0.758473
0.603095 1.000001 0.758940
0.603835 1.000001 0.759145
0.608282 1.000001 0.759296
0.646335 1.000001 0.758240
0.798896 1.000001 0.755571
0.942469 1.000001 0.760867
0.995119 1.000001 0.781002
1.000001 1.000001 0.794735
0.681498 1.000001 0.802473
0.681523 1.000001 0.802445
0.681625 1.000001 0.802418
0.683237 1.000001 0.802362
0.700660 1.000001 0.802227
0.792543 1.000001 0.800890
0.923258 1.000001 0.801753
0.983724 1.000001 0.812071
1.000001 1.000001 0.823571
0.051757 0.010174 0.790105
0.055886 0.010059 0.796123
0.116201 0.009296 0.801536
0.559356 0.007245 0.801557
0.838261 0.015959 0.789225
0.996383 0.226285 0.752290
1.000001 0.612116 0.772778
1.000001 0.735703 0.814356
1.000001 0.757068 0.824699
0.049784 0.010673 0.814903
0.053819 0.010551 0.816148
0.115810 0.009671 0.820768
0.581678 0.007454 0.820301
0.855193 0.017821 0.807129
1.000001 0.249010 0.767027
1.000001 0.625188 0.783435
1.000001 0.740135 0.819960
1.000001 0.756454 0.826983
0.032850 0.021539 0.832176
0.035610 0.020955 0.833507
0.084289 0.019015 0.833696
0.579234 0.014509 0.832670
0.866591 0.027138 0.820685
1.000001 0.281024 0.779923
1.000001 0.637478 0.792732
1.000001 0.744340 0.824908
1.000001 0.756347 0.829285
0.006348 0.386440 0.824673
0.006693 0.384653 0.825475
0.014779 0.372802 0.826390
0.456929 0.321589 0.821843
0.850902 0.258893 0.814500
1.000001 0.423904 0.784168
1.000001 0.658667 0.797116
1.000001 0.752462 0.827508
1.000001 0.761801 0.830580
0.004079 0.793805 0.781446
0.004104 0.794472 0.782143
0.004385 0.794661 0.782558
0.046013 0.789667 0.779961
0.770205 0.770217 0.770254
0.978872 0.734409 0.751465
1.000001 0.756715 0.782331
1.000001 0.796193 0.820248
1.000001 0.800676 0.824516
0.062337 0.947087 0.687235
0.063047 0.947417 0.687180
0.065828 0.948037 0.687015
0.095343 0.947776 0.684835
0.562522 0.943618 0.678104
0.912609 0.929281 0.697049
1.000001 0.910198 0.734431
1.000001 0.903285 0.787421
1.000001 0.899723 0.796487
0.357502 0.999238 0.714908
0.361284 0.999471 0.714892
0.364764 0.999584 0.714770
0.390764 0.999598 0.714439
0.548683 0.998893 0.712557
0.833438 0.993858 0.715907
0.972042 0.986573 0.739608
1.000001 0.978134 0.776269
1.000001 0.974712 0.784838
0.598108 1.000001 0.776794
0.599185 1.000001 0.776980
0.600003 1.000001 0.776884
0.604886 1.000001 0.776734
0.645128 1.000001 0.776263
0.798558 1.000001 0.775853
0.942310 1.000001 0.781862
0.995002 1.000001 0.800532
1.000001 1.000001 0.810171
0.680453 1.000001 0.811561
0.680498 1.000001 0.811371
0.680623 1.000001 0.811220
0.682384 1.000001 0.811009
0.699787 1.000001 0.810545
0.791918 1.000001 0.810401
0.923306 1.000001 0.812068
0.983680 1.000001 0.822277
1.000001 1.000001 0.833817
0.035557 0.006222 0.954647
0.035968 0.006066 0.958121
0.051220 0.005814 0.960662
0.538362 0.004945 0.960724
0.852342 0.004894 0.955301
0.972052 0.036502 0.935570
1.000001 0.470940 0.904039
1.000001 0.689180 0.897667
1.000001 0.728624 0.898461
0.031084 0.005788 0.967559
0.032247 0.005750 0.967987
0.046508 0.005502 0.970779
0.563626 0.004705 0.970507
0.869269 0.004729 0.964762
0.979405 0.039862 0.944304
1.000001 0.488279 0.912002
1.000001 0.692876 0.904440
1.000001 0.725820 0.903837
0.021780 0.006423 0.977376
0.022644 0.006336 0.977832
0.035027 0.006073 0.978324
0.565616 0.005004 0.977271
0.878316 0.005166 0.971488
0.984874 0.047287 0.951228
1.000001 0.503127 0.919532
1.000001 0.695734 0.910876
1.000001 0.723528 0.909114
0.004288 0.098156 0.969718
0.004316 0.095450 0.970617
0.004999 0.089936 0.970804
0.243683 0.062997 0.967447
0.834556 0.050953 0.963244
0.983263 0.108263 0.952248
1.000001 0.534846 0.925869
1.000001 0.704019 0.915783
1.000001 0.727814 0.913537
0.004643 0.717842 0.947755
0.004650 0.717163 0.948644
0.005183 0.715376 0.948848
0.036418 0.703072 0.947317
0.729170 0.669788 0.942513
0.959118 0.651313 0.936390
1.000001 0.691374 0.921086
1.000001 0.758286 0.914745
1.000001 0.772190 0.912165
0.023614 0.924213 0.915266
0.023928 0.924543 0.915613
0.025346 0.925147 0.916269
0.043007 0.924570 0.916071
0.527418 0.918993 0.912948
0.906215 0.906225 0.906257
1.000001 0.889362 0.896073
1.000001 0.885913 0.896462
1.000001 0.884153 0.895682
0.281165 0.991487 0.870992
0.284723 0.991717 0.871440
0.288517 0.991843 0.871385
0.320034 0.991850 0.871173
0.521956 0.990863 0.869673
0.826377 0.986583 0.864665
0.969777 0.978631 0.873327
1.000001 0.971482 0.873512
1.000001 0.968196 0.872991
0.580561 1.000001 0.860233
0.581281 1.000001 0.859871
0.582833 1.000001 0.859549
0.588543 1.000001 0.859131
0.633960 1.000001 0.858191
0.793112 1.000001 0.855164
0.940505 1.000001 0.860973
0.993968 1.000001 0.872493
1.000001 1.000001 0.872238
0.672847 1.000001 0.862077
0.673250 1.000001 0.861852
0.673473 1.000001 0.861273
0.675459 1.000001 0.860956
0.694676 1.000001 0.860085
0.788623 1.000001 0.858142
0.921989 1.000001 0.861687
0.982904 1.000001 0.870045
1.000001 1.000001 0.879880
0.007227 0.003663 1.000001
0.007039 0.003663 1.000001
0.008134 0.003663 1.000001
0.073058 0.003505 1.000001
0.922437 0.003505 1.000001
1.000001 0.003721 1.000001
1.000001 0.081205 0.998856
1.000001 0.571094 0.980187
1.000001 0.661507 0.975692
0.005966 0.003663 1.000001
0.005988 0.003663 1.000001
0.006812 0.003505 1.000001
0.067803 0.003505 1.000001
0.939354 0.003505 1.000001
1.000001 0.003663 1.000001
1.000001 0.087230 1.000001
1.000001 0.576553 0.983738
1.000001 0.655246 0.979650
0.004819 0.003505 1.000001
0.004830 0.003505 1.000001
0.005445 0.003505 1.000001
0.057099 0.003505 1.000001
0.951275 0.003505 1.000001
1.000001 0.003721 1.000001
1.000001 0.096260 1.000001
1.000001 0.579560 0.987313
1.000001 0.650135 0.983110
0.003505 0.004571 1.000001
0.003505 0.004472 1.000001
0.003663 0.004360 1.000001
0.013904 0.004006 1.000001
0.916350 0.003721 1.000001
0.994730 0.010779 1.000001
1.000001 0.137500 1.000001
1.000001 0.591214 0.990291
1.000001 0.654631 0.985878
0.003505 0.665278 1.000001
0.003505 0.663019 1.000001
0.003505 0.658338 1.000001
0.003505 0.616466 1.000001
0.664374 0.479209 1.000001
0.951685 0.446325 1.000001
1.000001 0.538681 0.999713
1.000001 0.680518 0.989272
1.000001 0.714809 0.985431
0.010511 0.894827 0.992334
0.010653 0.895271 0.992417
0.011102 0.895067 0.992577
0.019830 0.893244 0.992550
0.341767 0.884032 0.990516
0.888309 0.866722 0.986212
0.995252 0.860399 0.982962
1.000001 0.856909 0.977553
1.000001 0.857322 0.974845
0.148253 0.979645 0.973396
0.149244 0.979773 0.973533
0.152177 0.980020 0.973800
0.172284 0.979973 0.973830
0.438854 0.978584 0.973052
0.819755 0.973061 0.969890
0.966374 0.966383 0.966410
1.000001 0.959474 0.961884
1.000001 0.955732 0.959254
0.530030 1.000001 0.955106
0.530850 1.000001 0.955078
0.532794 1.000001 0.955021
0.540342 1.000001 0.954949
0.598977 1.000001 0.954730
0.784912 1.000001 0.952584
0.936535 1.000001 0.949282
0.991844 0.995880 0.955343
1.000001 0.993796 0.949510
0.648635 1.000001 0.944682
0.649166 1.000001 0.944437
0.649313 1.000001 0.944435
0.652160 1.000001 0.944166
0.674862 1.000001 0.943925
0.780808 1.000001 0.942259
0.917815 1.000001 0.939196
0.980927 1.000001 0.942585
1.000001 1.000001 0.947274
0.003663 0.003505 1.000001
0.003505 0.003505 1.000001
0.003663 0.003505 1.000001
0.004449 0.003505 1.000001
0.992829 0.003505 1.000001
1.000001 0.003505 1.000001
1.000001 0.004079 1.000001
1.000001 0.154049 1.000001
1.000001 0.555799 1.000001
0.003505 0.003505 1.000001
0.003505 0.003505 1.000001
0.003505 0.003505 1.000001
0.004270 0.003505 1.000001
1.000001 0.003505 1.000001
1.000001 0.003505 1.000001
1.000001 0.004270 1.000001
1.000001 0.162264 1.000001
1.000001 0.545368 1.000001
0.003505 0.003505 1.000001
0.003505 0.003505 1.000001
0.003505 0.003505 1.000001
0.004051 0.003505 1.000001
1.000001 0.003505 1.000001
1.000001 0.003505 1.000001
1.000001 0.004740 1.000001
1.000001 0.172671 1.000001
1.000001 0.536243 1.000001
0.003505 0.003505 1.000001
0.003505 0.003505 1.000001
0.003505 0.003505 1.000001
0.003505 0.003505 1.000001
1.000001 0.003505 1.000001
1.000001 0.003505 1.000001
1.000001 0.019843 1.000001
1.000001 0.211263 1.000001
1.000001 0.543961 1.000001
0.003505 0.610682 1.000001
0.003505 0.603776 1.000001
0.003505 0.593144 1.000001
0.003505 0.538230 1.000001
0.497634 0.142174 1.000001
0.953448 0.131799 1.000001
1.000001 0.244531 1.000001
1.000001 0.508322 1.000001
1.000001 0.640985 1.000001
0.003505 0.898386 1.000001
0.003505 0.898620 1.000001
0.003505 0.897826 1.000001
0.003505 0.887194 1.000001
0.115105 0.853286 1.000001
0.871611 0.828826 1.000001
0.991981 0.820286 1.000001
1.000001 0.827682 1.000001
1.000001 0.831580 1.000001
0.075488 0.969420 1.000001
0.075384 0.969395 1.000001
0.076528 0.969550 1.000001
0.085838 0.969267 1.000001
0.232683 0.967488 1.000001
0.788798 0.960670 1.000001
0.959817 0.952622 0.999459
1.000001 0.950145 0.998035
1.000001 0.945619 0.996278
0.440244 1.000001 0.996159
0.441195 1.000001 0.996213
0.443612 1.000001 0.996319
0.455374 1.000001 0.996338
0.542811 1.000001 0.996065
0.774443 0.997981 0.994517
0.935485 0.993449 0.991958
0.990359 0.990367 0.990390
1.000001 0.987625 0.988476
0.610334 1.000001 0.988632
0.610721 1.000001 0.988706
0.610916 1.000001 0.988705
0.614355 1.000001 0.988760
0.643580 1.000001 0.988572
0.769810 1.000001 0.987462
0.916085 1.000001 0.985198
0.979024 1.000001 0.983529
1.000001 1.000001 0.984833
0.003505 0.003505 1.000001
0.003505 0.003505 1.000001
0.003505 0.003505 1.000001
0.003505 0.003505 1.000001
0.659382 0.003505 1.000001
1.000001 0.003505 1.000001
1.000001 0.003505 1.000001
1.000001 0.049221 1.000001
1.000001 0.240340 1.000001
0.003505 0.003505 1.000001
0.003505 0.003505 1.000001
0.003505 0.003505 1.000001
0.003505 0.003505 1.000001
0.771301 0.003505 1.000001
1.000001 0.003505 1.000001
1.000001 0.003505 1.000001
1.000001 0.054887 1.000001
1.000001 0.248278 1.000001
0.003505 0.003505 1.000001
0.003505 0.003505 1.000001
0.003505 0.003505 1.000001
0.003505 0.003505 1.000001
0.850989 0.003505 1.000001
1.000001 0.003505 1.000001
1.000001 0.003505 1.000001
1.000001 0.062724 1.000001
1.000001 0.258478 1.000001
0.003505 0.003505 1.000001
0.003505 0.003505 1.000001
0.003505 0.003505 1.000001
0.003505 0.003505 1.000001
0.863599 0.003505 1.000001
1.000001 0.003505 1.000001
1.000001 0.003505 1.000001
1.000001 0.086098 1.000001
1.000001 0.296489 1.000001
0.003505 0.046305 1.000001
0.003505 0.035503 1.000001
0.003505 0.029133 1.000001
0.003505 0.019541 1.000001
0.022858 0.004564 1.000001
0.985964 0.011211 1.000001
1.000001 0.090488 1.000001
1.000001 0.294963 1.000001
1.000001 0.524305 1.000001
0.003505 0.928575 1.000001
0.003505 0.928427 1.000001
0.003505 0.927754 1.000001
0.003505 0.919438 1.000001
0.021445 0.832806 1.000001
0.855360 0.793737 1.000001
0.990188 0.784195 1.000001
1.000001 0.794573 1.000001
1.000001 0.809461 1.000001
0.035759 0.962891 1.000001
0.035198 0.962666 1.000001
0.035456 0.962628 1.000001
0.041089 0.962278 1.000001
0.122946 0.959679 1.000001
0.759389 0.951269 1.000001
0.954572 0.942130 1.000001
1.000001 0.939293 1.000001
1.000001 0.939435 1.000001
0.314519 0.997112 1.000001
0.315951 0.997174 1.000001
0.318236 0.997231 1.000001
0.332796 0.997156 1.000001
0.460525 0.996627 1.000001
0.745979 0.993708 1.000001
0.927463 0.988683 1.000001
0.987870 0.985283 1.000001
1.000001 0.984202 1.000001
0.571167 1.000001 1.000001
0.571209 1.000001 1.000001
0.571922 1.000001 1.000001
0.575997 1.000001 1.000001
0.613747 1.000001 1.000001
0.761626 1.000001 1.000001
0.916065 1.000001 1.000001
0.978851 1.000001 1.000001
0.999995 1.000001 1.000001
