aces_1.3/luts/shots/SC001_001/VFX_Final_LUT.cube
TITLE "RWG_Log3G10 to REC709_BT1886"
LUT_3D_SIZE 5
DOMAIN_MIN 0.000000 0.000000 0.000000
DOMAIN_MAX 1.000000 1.000000 1.000000
0.000000 0.000000 0.000000
0.253323 0.014380 0.021064
0.889068 0.141382 0.200521
1.000001 0.661165 0.704587
1.000001 0.764886 0.794974
0.003505 0.283226 0.004288
0.236264 0.260243 0.003761
0.916670 0.208825 0.227989
1.000001 0.685709 0.724116
1.000001 0.765519 0.794824
0.011589 0.846024 0.083044
0.013308 0.841762 0.079494
0.779797 0.813634 0.076206
1.000001 0.781185 0.698577
1.000001 0.809012 0.783721
0.390413 1.000001 0.653365
0.382997 1.000001 0.649647
0.550910 1.000001 0.643632
0.972056 0.988266 0.673518
1.000001 0.975847 0.754080
0.681597 1.000001 0.801564
0.681713 1.000001 0.801563
0.700685 1.000001 0.801256
0.922676 1.000001 0.800113
1.000001 1.000001 0.821971
0.012013 0.004426 0.217385
0.252729 0.004250 0.225582
0.888185 0.134333 0.253558
1.000001 0.660357 0.705660
1.000001 0.764769 0.795468
0.003505 0.242530 0.234585
0.229133 0.229138 0.229156
0.913558 0.196814 0.281558
1.000001 0.683877 0.724189
1.000001 0.765383 0.795380
0.010786 0.841470 0.091190
0.013367 0.843116 0.091630
0.781690 0.814796 0.092755
1.000001 0.781157 0.698542
1.000001 0.809056 0.784191
0.381374 1.000001 0.650164
0.387388 1.000001 0.651968
0.553121 1.000001 0.646218
0.972326 0.988478 0.675416
1.000001 0.976003 0.754501
0.681592 1.000001 0.801623
0.681706 1.000001 0.801617
0.700750 1.000001 0.801327
0.923320 1.000001 0.800422
1.000001 1.000001 0.822405
0.051757 0.010174 0.790105
0.116201 0.009296 0.801536
0.838261 0.015959 0.789225
1.000001 0.612116 0.772778
1.000001 0.757068 0.824699
0.032850 0.021539 0.832176
0.084289 0.019015 0.833696
0.866591 0.027138 0.820685
1.000001 0.637478 0.792732
1.000001 0.756347 0.829285
0.004079 0.793805 0.781446
0.004385 0.794661 0.782558
0.770205 0.770217 0.770254
1.000001 0.756715 0.782331
1.000001 0.800676 0.824516
0.357502 0.999238 0.714908
0.364764 0.999584 0.714770
0.548683 0.998893 0.712557
0.972042 0.986573 0.739608
1.000001 0.974712 0.784838
0.680453 1.000001 0.811561
0.680623 1.000001 0.811220
0.699787 1.000001 0.810545
0.923306 1.000001 0.812068
1.000001 1.000001 0.833817
0.007227 0.003663 1.000001
0.008134 0.003663 1.000001
0.922437 0.003505 1.000001
1.000001 0.081205 0.998856
1.000001 0.661507 0.975692
0.004819 0.003505 1.000001
0.005445 0.003505 1.000001
0.951275 0.003505 1.000001
1.000001 0.096260 1.000001
1.000001 0.650135 0.983110
0.003505 0.665278 1.000001
0.003505 0.658338 1.000001
0.664374 0.479209 1.000001
1.000001 0.538681 0.999713
1.000001 0.714809 0.985431
0.148253 0.979645 0.973396
0.152177 0.980020 0.973800
0.438854 0.978584 0.973052
0.966374 0.966383 0.966410
1.000001 0.955732 0.959254
0.648635 1.000001 0.944682
0.649313 1.000001 0.944435
0.674862 1.000001 0.943925
0.917815 1.000001 0.939196
1.000001 1.000001 0.947274
0.003505 0.003505 1.000001
0.003505 0.003505 1.000001
0.659382 0.003505 1.000001
1.000001 0.003505 1.000001
1.000001 0.240340 1.000001
0.003505 0.003505 1.000001
0.003505 0.003505 1.000001
0.850989 0.003505 1.000001
1.000001 0.003505 1.000001
1.000001 0.258478 1.000001
0.003505 0.046305 1.000001
0.003505 0.029133 1.000001
0.022858 0.004564 1.000001
1.000001 0.090488 1.000001
1.000001 0.524305 1.000001
0.035759 0.962891 1.000001
0.035456 0.962628 1.000001
0.122946 0.959679 1.000001
0.954572 0.942130 1.000001
1.000001 0.939435 1.000001
0.571167 1.000001 1.000001
0.571922 1.000001 1.000001
0.613747 1.000001 1.000001
0.916065 1.000001 1.000001
0.999995 1.000001 1.000001
