aces_1.3/luts/shots/SC001_001/VFX_Final_LUT.cube
TITLE "RWG_Log3G10 to REC709_BT1886"
LUT_3D_SIZE 33
DOMAIN_MIN 0.000000 0.000000 0.000000
DOMAIN_MAX 1.000000 1.000000 1.000000
0.000000 0.000000 0.000000
0.000002 0.000000 0.000000
0.000243 0.000000 0.000000
0.049321 0.003505 0.003505
0.072981 0.003505 0.003505
0.102700 0.003663 0.003721
0.140381 0.004692 0.005587
0.189304 0.007977 0.011705
0.253323 0.014380 0.021064
0.332298 0.021749 0.031393
0.416757 0.029826 0.042685
0.511484 0.039853 0.056682
0.607897 0.052265 0.073987
0.693554 0.066873 0.094358
0.769875 0.085353 0.120239
0.835092 0.109315 0.154176
0.889068 0.141382 0.200521
0.932598 0.186215 0.267314
0.965519 0.249229 0.351707
0.990139 0.338909 0.433606
1.000001 0.429944 0.508060
1.000001 0.506233 0.571971
1.000001 0.569672 0.625877
1.000001 0.620413 0.669400
1.000001 0.661165 0.704587
1.000001 0.693154 0.732341
1.000001 0.718251 0.754194
1.000001 0.737549 0.771041
1.000001 0.752382 0.784018
1.000001 0.764151 0.794330
1.000001 0.764886 0.794974
1.000001 0.764886 0.794974
1.000001 0.764886 0.794974
0.000000 0.000002 0.000000
0.000001 0.000001 0.000000
0.000068 0.000001 0.000000
0.046461 0.003505 0.003505
0.072282 0.003505 0.003505
0.104025 0.003917 0.003663
0.143066 0.005791 0.005406
0.193708 0.010321 0.011486
0.259804 0.016956 0.021078
0.339694 0.024116 0.031609
0.425501 0.032093 0.043278
0.520410 0.042028 0.057621
0.615818 0.054368 0.075226
0.700764 0.069111 0.096091
0.776141 0.087876 0.122633
0.840723 0.112514 0.157773
0.893582 0.145416 0.205590
0.936069 0.191587 0.274708
0.968099 0.256703 0.359323
0.991975 0.347959 0.440612
1.000001 0.437540 0.514215
1.000001 0.513305 0.577858
1.000001 0.574634 0.630062
1.000001 0.624913 0.673239
1.000001 0.664274 0.707253
1.000001 0.695918 0.734726
1.000001 0.720376 0.756032
1.000001 0.738998 0.772296
1.000001 0.753716 0.785176
1.000001 0.764711 0.794811
1.000001 0.764895 0.794972
1.000001 0.764895 0.794972
1.000001 0.764895 0.794972
0.000000 0.000110 0.000000
0.000000 0.000069 0.000000
0.000013 0.000039 0.000000
0.040344 0.003505 0.003505
0.070443 0.003721 0.003505
0.104668 0.005399 0.003663
0.145557 0.008910 0.005139
0.198117 0.014413 0.011039
0.265917 0.020517 0.020807
0.346937 0.027194 0.031616
0.433450 0.034820 0.043614
0.529204 0.044603 0.058441
0.623605 0.056799 0.076376
0.707842 0.071624 0.097772
0.782762 0.090792 0.125228
0.846223 0.115950 0.161415
0.897981 0.149698 0.210773
0.939444 0.197246 0.282298
0.970954 0.265625 0.367962
0.994001 0.358168 0.448531
1.000001 0.445052 0.520277
1.000001 0.519400 0.582905
1.000001 0.580194 0.634748
1.000001 0.628780 0.676524
1.000001 0.667751 0.710233
1.000001 0.698618 0.737050
1.000001 0.722196 0.757601
1.000001 0.740627 0.773705
1.000001 0.755048 0.786329
1.000001 0.764905 0.794970
1.000001 0.764905 0.794970
1.000001 0.764905 0.794970
1.000001 0.764905 0.794970
0.003505 0.046740 0.003505
0.003505 0.045056 0.003505
0.003505 0.042713 0.003505
0.025330 0.039167 0.003505
0.066610 0.032058 0.003505
0.104268 0.020368 0.003505
0.147372 0.018916 0.004774
0.201988 0.021445 0.010234
0.271804 0.025773 0.020214
0.353948 0.031363 0.031350
0.441876 0.038377 0.043822
0.537823 0.047750 0.059091
0.631852 0.059769 0.077537
0.715324 0.074625 0.099540
0.788760 0.093880 0.127570
0.851200 0.119483 0.164788
0.902262 0.154284 0.216056
0.942720 0.203249 0.289983
0.973366 0.273939 0.375423
0.995707 0.367092 0.455356
1.000001 0.453505 0.527094
1.000001 0.526238 0.588560
1.000001 0.584984 0.638760
1.000001 0.633110 0.680199
1.000001 0.671155 0.713141
1.000001 0.700935 0.739034
1.000001 0.724230 0.759350
1.000001 0.742036 0.774916
1.000001 0.756193 0.787314
1.000001 0.764920 0.794966
1.000001 0.764920 0.794966
1.000001 0.764920 0.794966
1.000001 0.764920 0.794966
0.003505 0.073808 0.003505
0.003505 0.072736 0.003505
0.003505 0.071422 0.003505
0.003663 0.069606 0.003505
0.057450 0.066890 0.003505
0.101895 0.060225 0.003505
0.147923 0.049136 0.004307
0.204913 0.035925 0.008952
0.277175 0.034545 0.019102
0.359878 0.037543 0.030541
0.449305 0.043221 0.043569
0.546180 0.051838 0.059462
0.639258 0.063361 0.078347
0.721514 0.077960 0.100807
0.794600 0.097443 0.129815
0.856045 0.123436 0.168123
0.905820 0.158720 0.220560
0.945441 0.208901 0.296504
0.975367 0.281610 0.381707
0.997119 0.374833 0.461108
1.000001 0.460872 0.532944
1.000001 0.532159 0.593399
1.000001 0.589710 0.642690
1.000001 0.636844 0.683341
1.000001 0.674084 0.715625
1.000001 0.703212 0.740973
1.000001 0.725978 0.760842
1.000001 0.743433 0.776110
1.000001 0.757526 0.788459
1.000001 0.764939 0.794961
1.000001 0.764939 0.794961
1.000001 0.764939 0.794961
1.000001 0.764939 0.794961
0.003505 0.108639 0.003505
0.003505 0.107733 0.003505
0.003505 0.106771 0.003505
0.003505 0.105471 0.003505
0.006284 0.103750 0.003505
0.090133 0.100323 0.003505
0.143504 0.092617 0.003721
0.204514 0.081151 0.006573
0.279759 0.062134 0.015987
0.364443 0.053463 0.027997
0.455286 0.054056 0.041762
0.552843 0.059921 0.058453
0.645319 0.069854 0.077996
0.727736 0.083733 0.101436
0.799611 0.102716 0.131188
0.860254 0.128740 0.170658
0.909795 0.165083 0.225566
0.948489 0.216616 0.303774
0.977609 0.291545 0.388816
0.998700 0.384231 0.467653
1.000001 0.467460 0.537808
1.000001 0.537364 0.597430
1.000001 0.594463 0.646520
1.000001 0.640582 0.686403
1.000001 0.677010 0.718045
1.000001 0.705790 0.743129
1.000001 0.727957 0.762501
1.000001 0.744844 0.777287
1.000001 0.758505 0.789267
1.000001 0.764980 0.794951
1.000001 0.764980 0.794951
1.000001 0.764980 0.794951
1.000001 0.764980 0.794951
0.003505 0.152365 0.003505
0.003505 0.151487 0.003505
0.003505 0.150518 0.003505
0.003505 0.149391 0.003505
0.003721 0.147878 0.003505
0.025037 0.145486 0.003505
0.128265 0.141074 0.003505
0.197177 0.131389 0.004343
0.276923 0.118717 0.010483
0.365429 0.100464 0.022823
0.458747 0.080906 0.037558
0.557762 0.077277 0.055411
0.650183 0.082549 0.075946
0.732049 0.093847 0.100285
0.804069 0.111537 0.131395
0.864096 0.136927 0.172244
0.912928 0.173335 0.228966
0.950921 0.225766 0.309204
0.979412 0.302245 0.394437
0.999978 0.393356 0.472962
1.000001 0.475473 0.543307
1.000001 0.543600 0.601994
1.000001 0.599334 0.650229
1.000001 0.644386 0.689372
1.000001 0.679974 0.720391
1.000001 0.707777 0.744688
1.000001 0.729717 0.763902
1.000001 0.746296 0.778445
1.000001 0.759711 0.790228
1.000001 0.765062 0.794932
1.000001 0.765062 0.794932
1.000001 0.765061 0.794932
1.000001 0.765061 0.794932
0.003505 0.209697 0.003825
0.003505 0.208851 0.003825
0.003505 0.207735 0.003793
0.003505 0.206508 0.003793
0.003663 0.205120 0.003761
0.004385 0.203046 0.003721
0.060609 0.199594 0.003663
0.176254 0.193535 0.003505
0.264616 0.181648 0.005264
0.359757 0.167151 0.014598
0.456905 0.148298 0.029810
0.558869 0.122181 0.049009
0.652267 0.111096 0.070851
0.734910 0.114573 0.096628
0.806657 0.127856 0.128949
0.866955 0.150954 0.171662
0.915097 0.186061 0.229855
0.952680 0.238534 0.312175
0.981065 0.316578 0.399330
1.000001 0.404245 0.477825
1.000001 0.483471 0.547683
1.000001 0.549588 0.605678
1.000001 0.603902 0.653248
1.000001 0.647904 0.691797
1.000001 0.682692 0.722311
1.000001 0.710170 0.746441
1.000001 0.731331 0.765047
1.000001 0.747647 0.779408
1.000001 0.760809 0.791003
1.000001 0.765222 0.794894
1.000001 0.765222 0.794894
1.000001 0.765220 0.794894
1.000001 0.765220 0.794894
0.003505 0.283226 0.004288
0.003505 0.282488 0.004288
0.003505 0.281148 0.004279
0.003505 0.279718 0.004250
0.003663 0.278164 0.004230
0.003761 0.276664 0.004188
0.006307 0.273553 0.004092
0.105725 0.268440 0.003955
0.236264 0.260243 0.003761
0.343222 0.245441 0.006380
0.447676 0.228163 0.019023
0.555030 0.206317 0.038874
0.649717 0.182245 0.061694
0.734371 0.161737 0.089003
0.807731 0.161500 0.123210
0.868104 0.177317 0.167371
0.916670 0.208825 0.227989
0.954078 0.259907 0.312935
0.982186 0.336075 0.401906
1.000001 0.417105 0.481002
1.000001 0.492274 0.550794
1.000001 0.555863 0.608401
1.000001 0.608523 0.655528
1.000001 0.651372 0.693653
1.000001 0.685709 0.724116
1.000001 0.712485 0.747842
1.000001 0.733126 0.766122
1.000001 0.748977 0.780160
1.000001 0.761868 0.791579
1.000001 0.765526 0.794822
1.000001 0.765524 0.794823
1.000001 0.765522 0.794823
1.000001 0.765519 0.794824
0.003505 0.367660 0.005103
0.003505 0.366325 0.005085
0.003505 0.364959 0.005066
0.003505 0.364135 0.005052
0.003663 0.362621 0.005019
0.003721 0.360797 0.004965
0.004230 0.358853 0.004868
0.014088 0.354910 0.004681
0.158400 0.348697 0.004410
0.309258 0.339314 0.004104
0.424590 0.322584 0.008054
0.542029 0.301672 0.025755
0.641563 0.279002 0.048701
0.729981 0.254798 0.077250
0.805184 0.236545 0.112575
0.867060 0.231970 0.158270
0.916758 0.252032 0.221058
0.954500 0.296968 0.308921
0.982676 0.362752 0.401368
1.000001 0.433861 0.482039
1.000001 0.503144 0.552377
1.000001 0.563892 0.610670
1.000001 0.614273 0.657503
1.000001 0.655613 0.695293
1.000001 0.688538 0.725105
1.000001 0.714654 0.748610
1.000001 0.735032 0.766901
1.000001 0.750600 0.780841
1.000001 0.763176 0.792095
1.000001 0.766077 0.794692
1.000001 0.766072 0.794694
1.000001 0.766067 0.794695
1.000001 0.766062 0.794696
0.003663 0.452793 0.006532
0.003663 0.452087 0.006513
0.003663 0.450746 0.006479
0.003663 0.449362 0.006442
0.003663 0.448534 0.006411
0.003721 0.446904 0.006339
0.003972 0.444781 0.006213
0.005525 0.442347 0.006001
0.033580 0.437700 0.005652
0.221584 0.430727 0.005214
0.386880 0.420778 0.004769
0.508737 0.403738 0.011410
0.625148 0.382614 0.033266
0.719065 0.360412 0.061369
0.797918 0.340069 0.096859
0.863077 0.326168 0.143556
0.914286 0.328455 0.206750
0.953179 0.353169 0.296365
0.982036 0.398964 0.395233
1.000001 0.457113 0.480185
1.000001 0.517803 0.552006
1.000001 0.573470 0.610903
1.000001 0.620846 0.657944
1.000001 0.660271 0.695767
1.000001 0.692336 0.725845
1.000001 0.717549 0.749190
1.000001 0.737305 0.767335
1.000001 0.752347 0.781066
1.000001 0.764732 0.792344
1.000001 0.767054 0.794462
1.000001 0.767035 0.794466
1.000001 0.767026 0.794468
1.000001 0.767017 0.794470
0.003721 0.535759 0.009367
0.003721 0.535098 0.009334
0.003721 0.533826 0.009268
0.003721 0.533126 0.009226
0.003761 0.531783 0.009145
0.003825 0.530332 0.009040
0.003990 0.529164 0.008893
0.004637 0.526778 0.008594
0.010006 0.523294 0.008116
0.073171 0.518772 0.007489
0.298094 0.511343 0.006757
0.464617 0.501213 0.006122
0.583244 0.484424 0.015775
0.697723 0.463520 0.042787
0.784656 0.442769 0.077502
0.854050 0.424833 0.122885
0.908551 0.415557 0.184930
0.950122 0.422117 0.274909
0.980272 0.447981 0.382691
1.000001 0.489306 0.473198
1.000001 0.538157 0.548090
1.000001 0.586472 0.608636
1.000001 0.629998 0.657090
1.000001 0.666760 0.695274
1.000001 0.697060 0.725541
1.000001 0.721163 0.748962
1.000001 0.740177 0.767136
1.000001 0.754752 0.780920
1.000001 0.766656 0.792094
1.000001 0.768729 0.794064
1.000001 0.768696 0.794071
1.000001 0.768680 0.794075
1.000001 0.768648 0.794083
0.003917 0.613715 0.014760
0.003917 0.612553 0.014658
0.003936 0.611945 0.014604
0.003955 0.610757 0.014496
0.003990 0.610104 0.014425
0.004037 0.608826 0.014287
0.004165 0.607911 0.014129
0.004585 0.606042 0.013795
0.006484 0.603437 0.013242
0.022215 0.600253 0.012452
0.150707 0.594849 0.011349
0.379816 0.587272 0.010148
0.539844 0.577870 0.009316
0.653115 0.561086 0.022669
0.762421 0.540890 0.056475
0.840327 0.521947 0.099795
0.899905 0.506871 0.159080
0.944191 0.500939 0.243804
0.976619 0.509205 0.359931
0.999410 0.532892 0.460571
1.000001 0.567540 0.540372
1.000001 0.606002 0.603758
1.000001 0.643109 0.653896
1.000001 0.675918 0.693068
1.000001 0.703756 0.723936
1.000001 0.726511 0.747993
1.000001 0.744466 0.766350
1.000001 0.758496 0.780450
1.000001 0.769744 0.791560
1.000001 0.771550 0.793388
1.000001 0.771496 0.793401
1.000001 0.771469 0.793408
1.000001 0.771414 0.793421
0.004326 0.684309 0.023040
0.004334 0.683268 0.022885
0.004352 0.682731 0.022805
0.004352 0.681673 0.022644
0.004385 0.681108 0.022552
0.004426 0.679997 0.022368
0.004558 0.679275 0.022204
0.004909 0.677801 0.021854
0.006094 0.676377 0.021379
0.012332 0.673660 0.020535
0.046713 0.669754 0.019349
0.247042 0.664805 0.018001
0.459780 0.657390 0.016695
0.609562 0.647820 0.016189
0.716223 0.632534 0.033257
0.818074 0.613473 0.075943
0.885235 0.596707 0.129943
0.935568 0.584069 0.209469
0.971157 0.580245 0.326924
0.995824 0.587902 0.439091
1.000001 0.607557 0.527501
1.000001 0.633962 0.595352
1.000001 0.662747 0.648171
1.000001 0.690257 0.689470
1.000001 0.714455 0.721292
1.000001 0.734800 0.745962
1.000001 0.751124 0.764726
1.000001 0.764076 0.779092
1.000001 0.774572 0.790388
1.000001 0.776188 0.792262
1.000001 0.776099 0.792284
1.000001 0.776010 0.792306
1.000001 0.775922 0.792327
0.005170 0.746769 0.035669
0.005170 0.745860 0.035433
0.005179 0.745396 0.035314
0.005188 0.744476 0.035074
0.005214 0.743994 0.034946
0.005256 0.743042 0.034690
0.005394 0.742468 0.034503
0.005743 0.741301 0.034110
0.006759 0.740301 0.033655
0.010494 0.738349 0.032805
0.025338 0.735594 0.031574
0.091798 0.732164 0.030087
0.348592 0.726745 0.028358
0.537700 0.719630 0.027158
0.673714 0.711192 0.027790
0.770746 0.696685 0.049116
0.863911 0.679043 0.103343
0.921876 0.664210 0.174016
0.962580 0.653807 0.281992
0.990643 0.650615 0.410212
1.000001 0.657304 0.507170
1.000001 0.671502 0.582286
1.000001 0.690655 0.639010
1.000001 0.710869 0.682914
1.000001 0.730080 0.716420
1.000001 0.747138 0.742191
1.000001 0.761298 0.761923
1.000001 0.772680 0.776728
1.000001 0.782127 0.788510
1.000001 0.783574 0.790428
1.000001 0.783365 0.790481
1.000001 0.783226 0.790516
1.000001 0.783089 0.790550
0.007036 0.800616 0.054693
0.007018 0.799840 0.054337
0.007021 0.799445 0.054159
0.007013 0.798661 0.053803
0.007044 0.798256 0.053618
0.007076 0.797453 0.053250
0.007242 0.796995 0.053020
0.007639 0.796066 0.052543
0.008740 0.795355 0.052088
0.011905 0.793943 0.051204
0.020763 0.792015 0.049939
0.049829 0.789697 0.048385
0.180307 0.785881 0.046312
0.443478 0.781100 0.044552
0.609928 0.774429 0.043892
0.730387 0.766313 0.046508
0.817539 0.753693 0.073228
0.900906 0.737720 0.142666
0.949570 0.724406 0.236503
0.982402 0.715684 0.370674
1.000001 0.713258 0.480145
1.000001 0.717288 0.562937
1.000001 0.726414 0.625101
1.000001 0.739047 0.673118
1.000001 0.752436 0.708966
1.000001 0.765273 0.736673
1.000001 0.776263 0.757244
1.000001 0.785513 0.772961
1.000001 0.793473 0.785379
1.000001 0.794643 0.787584
1.000001 0.794336 0.787665
1.000001 0.794032 0.787744
1.000001 0.793830 0.787797
0.011589 0.846024 0.083044
0.011523 0.845373 0.082512
0.011460 0.844720 0.081983
0.011509 0.844712 0.081980
0.011480 0.844051 0.081447
0.011483 0.843383 0.080911
0.011631 0.842690 0.080347
0.012175 0.842603 0.080241
0.013308 0.841762 0.079494
0.015970 0.840735 0.078526
0.022424 0.839381 0.077196
0.039633 0.837508 0.075373
0.094925 0.835549 0.073535
0.318307 0.831889 0.070975
0.530776 0.827017 0.069125
0.674893 0.820893 0.069792
0.779797 0.813634 0.076206
0.857725 0.802333 0.110581
0.930782 0.788505 0.202264
0.970774 0.776741 0.328341
0.996404 0.769836 0.447812
1.000001 0.766493 0.539216
1.000001 0.768344 0.607647
1.000001 0.773520 0.659298
1.000001 0.781185 0.698577
1.000001 0.788937 0.728528
1.000001 0.796797 0.750734
1.000001 0.803427 0.767386
1.000001 0.809225 0.780485
1.000001 0.810257 0.783378
1.000001 0.809840 0.783493
1.000001 0.809287 0.783646
1.000001 0.809012 0.783721
0.019947 0.883598 0.125280
0.019983 0.883595 0.125281
0.019856 0.883058 0.124479
0.019741 0.882518 0.123679
0.019650 0.881974 0.122881
0.019750 0.881964 0.122870
0.019823 0.881403 0.122047
0.020179 0.880814 0.121179
0.021163 0.880165 0.120211
0.023638 0.879951 0.119825
0.028863 0.878999 0.118339
0.041115 0.877720 0.116363
0.073890 0.875913 0.113745
0.182828 0.873372 0.110620
0.437645 0.870510 0.108407
0.609694 0.866018 0.107169
0.732480 0.860513 0.110569
0.822717 0.854106 0.123869
0.889905 0.844320 0.168038
0.953449 0.831493 0.292900
0.986032 0.822245 0.417170
1.000001 0.815657 0.513005
1.000001 0.812840 0.586591
1.000001 0.812852 0.642729
1.000001 0.814978 0.685280
1.000001 0.818367 0.717648
1.000001 0.822571 0.741680
1.000001 0.826155 0.759831
1.000001 0.829909 0.774112
1.000001 0.830367 0.777632
1.000001 0.829675 0.777835
1.000001 0.829331 0.777937
1.000001 0.828645 0.778138
0.033633 0.914833 0.191352
0.033409 0.914399 0.190090
0.033188 0.913963 0.188836
0.033237 0.913960 0.188837
0.033049 0.913521 0.187587
0.032893 0.913079 0.186341
0.032858 0.912628 0.185086
0.033348 0.912600 0.185013
0.034171 0.912099 0.183631
0.036180 0.911535 0.182086
0.040673 0.910852 0.180245
0.050569 0.909966 0.177925
0.073794 0.909205 0.176109
0.135512 0.907490 0.172340
0.338686 0.905098 0.168231
0.539155 0.901871 0.165079
0.679600 0.897782 0.165619
0.782754 0.893399 0.175695
0.859054 0.887838 0.202056
0.916356 0.878924 0.262223
0.970647 0.868443 0.395549
0.996580 0.860808 0.490321
1.000001 0.855189 0.565242
1.000001 0.851606 0.624434
1.000001 0.850420 0.669967
1.000001 0.850580 0.704911
1.000001 0.851483 0.730824
1.000001 0.853137 0.750281
1.000001 0.854470 0.765739
1.000001 0.854531 0.770301
1.000001 0.853748 0.770545
1.000001 0.852968 0.770787
1.000001 0.852189 0.771028
0.054517 0.939587 0.295695
0.054159 0.939240 0.293763
0.053804 0.938892 0.291821
0.053853 0.938890 0.291822
0.053531 0.938540 0.289866
0.053240 0.938187 0.287895
0.053446 0.938180 0.287873
0.053522 0.937813 0.285837
0.054150 0.937426 0.283720
0.055886 0.937001 0.281450
0.059818 0.936506 0.278894
0.068621 0.936247 0.277806
0.087106 0.935422 0.274003
0.130301 0.934273 0.269274
0.257161 0.932632 0.263697
0.471684 0.930378 0.258365
0.624319 0.927810 0.257631
0.739820 0.924135 0.262660
0.825201 0.919886 0.282945
0.888903 0.915120 0.322657
0.937761 0.907987 0.378146
0.983195 0.898708 0.478337
1.000001 0.892485 0.550617
1.000001 0.887697 0.609269
1.000001 0.884268 0.655773
1.000001 0.882469 0.691826
1.000001 0.881489 0.719262
1.000001 0.881008 0.740011
1.000001 0.881247 0.756400
1.000001 0.880492 0.762137
1.000001 0.879689 0.762389
1.000001 0.878886 0.762642
1.000001 0.878083 0.762895
0.085587 0.959234 0.403505
0.085046 0.958961 0.402024
0.085086 0.958961 0.402026
0.084558 0.958687 0.400537
0.084053 0.958411 0.399042
0.083581 0.958134 0.397539
0.083774 0.958130 0.397530
0.083648 0.957844 0.395996
0.084045 0.957546 0.394415
0.085499 0.957225 0.392751
0.089531 0.957143 0.392465
0.097079 0.956707 0.390398
0.112914 0.956143 0.387910
0.147961 0.955365 0.384787
0.235727 0.954262 0.380902
0.422700 0.953001 0.378092
0.575500 0.950905 0.374313
0.697337 0.948193 0.373638
0.790613 0.944957 0.379821
0.861913 0.941222 0.397056
0.913835 0.937556 0.428063
0.954240 0.931300 0.468491
0.991850 0.924035 0.546086
1.000001 0.918596 0.600740
1.000001 0.914580 0.645901
1.000001 0.911890 0.681509
1.000001 0.909517 0.709356
1.000001 0.908072 0.730540
1.000001 0.906969 0.747379
1.000001 0.906316 0.754337
1.000001 0.905184 0.754656
1.000001 0.904427 0.754872
1.000001 0.903287 0.755199
0.130449 0.974577 0.488182
0.129661 0.974366 0.487002
0.129704 0.974366 0.487003
0.128929 0.974154 0.485818
0.128179 0.973941 0.484628
0.128282 0.973939 0.484627
0.127650 0.973724 0.483429
0.127272 0.973504 0.482217
0.127401 0.973277 0.480980
0.129373 0.973252 0.480904
0.132522 0.972985 0.479547
0.139454 0.972674 0.478051
0.154135 0.972281 0.476317
0.185377 0.971752 0.474209
0.258352 0.971233 0.472840
0.403909 0.970173 0.469700
0.542252 0.968689 0.466380
0.660708 0.966726 0.464010
0.757505 0.964290 0.464647
0.834150 0.961664 0.472311
0.891367 0.958510 0.486825
0.933705 0.955165 0.510517
0.966992 0.950330 0.542641
0.998030 0.944133 0.601710
1.000001 0.940086 0.643268
1.000001 0.936491 0.676754
1.000001 0.934179 0.703329
1.000001 0.932010 0.723975
1.000001 0.930489 0.740780
1.000001 0.929313 0.748824
1.000001 0.928323 0.749008
1.000001 0.927659 0.749135
1.000001 0.926657 0.749332
0.194013 0.986350 0.555670
0.192890 0.986190 0.554729
0.192936 0.986189 0.554729
0.191824 0.986028 0.553784
0.190741 0.985865 0.552835
0.190851 0.985864 0.552834
0.189886 0.985700 0.551879
0.189184 0.985533 0.550917
0.189004 0.985362 0.549938
0.191027 0.985346 0.549896
0.193940 0.985150 0.548850
0.200727 0.984925 0.547721
0.215169 0.984649 0.546453
0.245435 0.984283 0.544958
0.312105 0.983945 0.544114
0.417474 0.983216 0.541866
0.528128 0.982181 0.539276
0.635007 0.980761 0.536800
0.729479 0.978939 0.535540
0.808582 0.976907 0.538243
0.869835 0.974408 0.544831
0.916372 0.971696 0.557889
0.949540 0.968992 0.576766
0.976839 0.965066 0.602106
1.000001 0.960063 0.647919
1.000001 0.956899 0.678434
1.000001 0.954300 0.703109
1.000001 0.952151 0.722291
1.000001 0.950286 0.737960
1.000001 0.949072 0.746887
1.000001 0.948260 0.746883
1.000001 0.947439 0.746889
1.000001 0.946887 0.746897
0.284139 0.995341 0.609742
0.284194 0.995341 0.609742
0.282599 0.995218 0.608984
0.281014 0.995095 0.608224
0.279457 0.994970 0.607461
0.279581 0.994970 0.607460
0.278145 0.994844 0.606693
0.276991 0.994717 0.605920
0.276404 0.994587 0.605137
0.278602 0.994577 0.605112
0.281352 0.994430 0.604288
0.288234 0.994265 0.603413
0.302739 0.994066 0.602452
0.333115 0.993937 0.602132
0.382718 0.993582 0.600807
0.450739 0.993073 0.599172
0.533293 0.992339 0.597202
0.622335 0.991313 0.595077
0.710164 0.990074 0.594143
0.786913 0.988373 0.593860
0.850054 0.986386 0.596430
0.899084 0.984211 0.603148
0.935910 0.981939 0.614680
0.962032 0.979749 0.629952
0.984246 0.976587 0.649913
1.000001 0.972540 0.685728
1.000001 0.970078 0.708079
1.000001 0.968054 0.725752
1.000001 0.966331 0.739816
1.000001 0.964929 0.749146
1.000001 0.964287 0.748957
1.000001 0.963638 0.748776
1.000001 0.962982 0.748603
0.390413 1.000001 0.653365
0.390454 1.000001 0.653366
0.389025 1.000001 0.652753
0.387590 1.000001 0.652139
0.386167 1.000001 0.651521
0.386257 1.000001 0.651521
0.384906 1.000001 0.650901
0.383753 1.000001 0.650278
0.382997 1.000001 0.649647
0.384581 1.000001 0.649631
0.386250 1.000001 0.648974
0.390758 1.000001 0.648283
0.400162 1.000001 0.647537
0.418742 1.000001 0.647330
0.447633 1.000001 0.646340
0.491524 1.000001 0.645125
0.550910 1.000001 0.643632
0.622453 0.999284 0.641900
0.698182 0.998361 0.640868
0.770297 0.997039 0.639841
0.833022 0.995452 0.640442
0.883734 0.993672 0.643735
0.922943 0.991777 0.650522
0.951288 0.989922 0.660460
0.972056 0.988266 0.673518
0.990188 0.985578 0.688962
1.000001 0.982494 0.716867
1.000001 0.980435 0.732834
1.000001 0.978872 0.745353
1.000001 0.977542 0.755022
1.000001 0.976866 0.754732
1.000001 0.976360 0.754403
1.000001 0.975847 0.754080
0.389033 1.000001 0.652782
0.468757 1.000001 0.688169
0.468783 1.000001 0.688168
0.467751 1.000001 0.687671
0.466727 1.000001 0.687171
0.466781 1.000001 0.687171
0.465796 1.000001 0.686670
0.464922 1.000001 0.686165
0.464273 1.000001 0.685656
0.465184 1.000001 0.685645
0.465935 1.000001 0.685118
0.468338 1.000001 0.684569
0.473720 1.000001 0.683980
0.484978 1.000001 0.683840
0.503019 1.000001 0.683083
0.532152 1.000001 0.682162
0.574637 1.000001 0.681021
0.629797 1.000001 0.679652
0.693683 1.000001 0.678701
0.759011 1.000001 0.677477
0.819308 1.000001 0.677157
0.870301 1.000001 0.678568
0.911057 0.999286 0.682467
0.941073 0.997805 0.689317
0.963322 0.996278 0.697908
0.979870 0.994824 0.708204
0.994713 0.992759 0.720940
1.000001 0.990187 0.742126
1.000001 0.988591 0.753670
1.000001 0.987367 0.762777
1.000001 0.986776 0.763276
1.000001 0.986254 0.762713
1.000001 0.985857 0.762295
0.528124 1.000001 0.717225
0.527351 1.000001 0.716824
0.527368 1.000001 0.716824
0.526593 1.000001 0.716422
0.525821 1.000001 0.716019
0.525855 1.000001 0.716019
0.525108 1.000001 0.715613
0.524428 1.000001 0.715205
0.523892 1.000001 0.714794
0.524469 1.000001 0.714787
0.524822 1.000001 0.714363
0.526246 1.000001 0.713923
0.529594 1.000001 0.713456
0.536954 1.000001 0.713358
0.549018 1.000001 0.712768
0.569159 1.000001 0.712057
0.599791 1.000001 0.711177
0.642716 1.000001 0.710087
0.695643 1.000001 0.709269
0.753347 1.000001 0.708077
0.809750 1.000001 0.707377
0.859693 1.000001 0.707794
0.900521 1.000001 0.709933
0.931853 1.000001 0.714442
0.955423 1.000001 0.720428
0.973158 1.000001 0.727996
